icons/handbag-fill.svg

<svg viewBox="0 0 24 24" fill="currentColor" xmlns="http://www.w3.org/2000/svg">
    <path d="M12.0002 2C15.8662 2 19.0002 5.13401 19.0002 9H20.0742C20.5967 9 21.0311 9.40231 21.0712 9.9233L21.9174 20.9233C21.9597 21.474 21.5477 21.9547 20.997 21.9971L20.9203 22H3.08008C2.52779 22 2.08008 21.5523 2.08008 21L2.08302 20.9233L2.92918 9.9233C2.96925 9.40231 3.4037 9 3.92623 9H5.0002C5.0002 5.13401 8.13421 2 12.0002 2ZM14.0002 13H10.0002V15H14.0002V13ZM12.0002 4C9.31145 4 7.11838 6.12231 7.00482 8.78311L7.0002 9H17.0002C17.0002 6.31124 14.8779 4.11818 12.2171 4.00462L12.0002 4Z"/>
</svg>

<svg xmlns="http://www.w3.org/2000/svg" viewBox="0 0 24 24">
    <g>
        <path fill="none" d="M0 0h24v24H0z"/>
        <path d="M12 2a7 7 0 0 1 7 7h1.074a1 1 0 0 1 .997.923l.846 11a1 1 0 0 1-.92 1.074L20.92 22H3.08a1 1 0 0 1-1-1l.003-.077.846-11A1 1 0 0 1 3.926 9H5a7 7 0 0 1 7-7zm2 11h-4v2h4v-2zm-2-9a5 5 0 0 0-4.995 4.783L7 9h10a5 5 0 0 0-4.783-4.995L12 4z"/>
    </g>
</svg>
